X: 304
T:Princess Royal. JaW.303
M:C|
L:1/8
Q:200
C:Carolan
S:James Winder Ms, Lancashire, 1835-41
R:Country Dance
O:England
A:Wyresdale,Lancashire
N:Last bar of all is illegible on my photocopy..
H:1/8
Z:vmp.Chris Partington, Aug 2004
K:Bb
GA|B2(AB) G2(dc)|B2(AB) G2d2|e2(dc) B2c2|d2(cd) B2B2|!
B2gB A2fA|GBAG F2(dc)|BABG|D2F2|F2G4:|!
|:d2|gfga gfga|b2B2B2ga|bagf edcB|A2F2F2(GA)|!
B2B2c2c2|d2d2 g4|f2d2 e4|d2G2c4|!
B3A GBAG|F2(EF) D2(dc)|BABG "qu's"D2F2|F2G4:|]
